X:820
T:Donald Morrison, Beauly
C:Alex Grant ("Battan"), Inverness
S:Flowers of Scottish Melody, 1935
Z:Nigel Gatherer
M:4/4
L:1/8
K:A
E | A2 cA G<AEA | cAEA GBBG | A2 cA GAFA | deBe cAA :|
g | a2 ea ca Ab | aecA cBBg | aece  dece | deBe cAA
g | aeca  Aacb  | aecA cBBg | acfa  eaca | deBe cAA ||
